src/assets/icons/shrink.svg

<svg width="16" height="16" viewBox="0 0 16 16" fill="none" xmlns="http://www.w3.org/2000/svg">
<g clip-path="url(#clip0_8874_15278)">
<path fill-rule="evenodd" clip-rule="evenodd" d="M8.97838 0.0237012C8.64392 0.0963566 8.35622 0.38729 8.28461 0.725217C8.26236 0.830253 8.25823 1.3188 8.25796 3.88202C8.25774 6.02616 8.26359 6.94304 8.27793 7.01182C8.34917 7.35346 8.64659 7.65087 8.98822 7.72211C9.057 7.73645 9.97388 7.7423 12.118 7.74208C14.6812 7.74181 15.1698 7.73768 15.2748 7.71543C15.7422 7.61638 16.0655 7.14522 15.988 6.67602C15.9391 6.38015 15.7516 6.13052 15.4754 5.99363L15.3186 5.91591L13.3535 5.91099L11.3885 5.90607L13.6208 3.67149C15.7179 1.57228 15.8566 1.42952 15.9102 1.31514C16.275 0.536493 15.4627 -0.274447 14.6835 0.0905193C14.571 0.143221 14.418 0.291818 12.3286 2.37924L10.094 4.61158L10.089 2.64655L10.0841 0.681492L10.0064 0.524634C9.87481 0.259088 9.6262 0.0660499 9.35108 0.0158079C9.21285 -0.00945075 9.1221 -0.00752339 8.97838 0.0237012ZM0.717912 8.28417C0.363538 8.36116 0.0717596 8.67519 0.0127982 9.043C-0.0500181 9.43504 0.156328 9.82199 0.525902 10.0051L0.682759 10.0829L2.64781 10.0878L4.61285 10.0927L2.38051 12.3273C0.273884 14.436 0.144911 14.5688 0.0904466 14.685C-0.0756623 15.0395 -0.00333735 15.4487 0.274527 15.7266C0.551381 16.0034 0.961963 16.0749 1.31782 15.9083C1.43035 15.8556 1.58326 15.707 3.67276 13.6195L5.90734 11.3872L5.91226 13.3522L5.91718 15.3173L5.9949 15.4741C6.17805 15.8437 6.565 16.0501 6.95704 15.9872C7.32941 15.9275 7.63993 15.6358 7.7167 15.2736C7.73894 15.1685 7.74307 14.68 7.74335 12.1168C7.74357 9.97261 7.73771 9.05574 7.72338 8.98695C7.65214 8.64532 7.35472 8.34791 7.01309 8.27666C6.857 8.24412 0.869409 8.25126 0.717912 8.28417Z" fill="currentColor"/>
</g>
<defs>
<clipPath id="clip0_8874_15278">
<rect width="16" height="16" fill="white" transform="translate(0 -0.000732422)"/>
</clipPath>
</defs>
</svg>

<svg xmlns="http://www.w3.org/2000/svg" width="16" height="16" fill="none">
  <g clip-path="url(#a)">
    <path fill="currentColor" fill-rule="evenodd" d="M8.978.024a.939.939 0 0 0-.693.701c-.023.105-.027.594-.027 3.157 0 2.144.006 3.061.02 3.13a.952.952 0 0 0 .71.71c.069.014.986.02 3.13.02 2.563 0 3.052-.004 3.157-.027a.928.928 0 0 0 .713-1.039.928.928 0 0 0-.513-.682l-.156-.078-1.966-.005-1.964-.005 2.232-2.235c2.097-2.099 2.236-2.241 2.29-2.356.364-.779-.448-1.59-1.227-1.224-.113.052-.266.2-2.355 2.288l-2.235 2.233-.005-1.965L10.084.68l-.078-.156a.937.937 0 0 0-.655-.51.832.832 0 0 0-.373.009Zm-8.26 8.26a.94.94 0 0 0-.705.759.916.916 0 0 0 .513.962l.157.078 1.965.005 1.965.005-2.232 2.234C.274 14.436.145 14.57.09 14.685a.912.912 0 0 0 .184 1.042.914.914 0 0 0 1.043.181c.112-.052.265-.201 2.355-2.288l2.234-2.233.005 1.965.005 1.965.078.157c.183.37.57.576.962.513a.936.936 0 0 0 .76-.713c.022-.105.026-.594.026-3.157 0-2.144-.005-3.061-.02-3.13a.951.951 0 0 0-.71-.71C6.857 8.244.87 8.25.718 8.284Z" clip-rule="evenodd"/>
  </g>
  <defs>
    <clipPath id="a">
      <path fill="#fff" d="M0 0h16v16H0z"/>
    </clipPath>
  </defs>
</svg>
